images/6604739.svg

<?xml version="1.0" encoding="UTF-8"?>
<svg xmlns="http://www.w3.org/2000/svg" xmlns:xlink="http://www.w3.org/1999/xlink" width="300pt" height="300pt" viewBox="0 0 300 300" version="1.1">
<defs>
<g>
<symbol overflow="visible" id="glyph0-0">
<path style="stroke:none;" d="M 0.453125 1.59375 L 0.453125 -6.34375 L 4.953125 -6.34375 L 4.953125 1.59375 Z M 0.953125 1.09375 L 4.453125 1.09375 L 4.453125 -5.84375 L 0.953125 -5.84375 Z M 0.953125 1.09375 "/>
</symbol>
<symbol overflow="visible" id="glyph0-1">
<path style="stroke:none;" d="M 0.890625 -6.5625 L 4.65625 -6.5625 L 4.65625 -5.8125 L 1.765625 -5.8125 L 1.765625 -3.875 L 4.375 -3.875 L 4.375 -3.140625 L 1.765625 -3.140625 L 1.765625 0 L 0.890625 0 Z M 0.890625 -6.5625 "/>
</symbol>
<symbol overflow="visible" id="glyph0-2">
<path style="stroke:none;" d="M 0.890625 -6.5625 L 2.078125 -6.5625 L 4.984375 -1.078125 L 4.984375 -6.5625 L 5.84375 -6.5625 L 5.84375 0 L 4.65625 0 L 1.75 -5.484375 L 1.75 0 L 0.890625 0 Z M 0.890625 -6.5625 "/>
</symbol>
<symbol overflow="visible" id="glyph0-3">
<path style="stroke:none;" d="M 0.890625 -6.5625 L 1.765625 -6.5625 L 1.765625 -3.875 L 5 -3.875 L 5 -6.5625 L 5.890625 -6.5625 L 5.890625 0 L 5 0 L 5 -3.125 L 1.765625 -3.125 L 1.765625 0 L 0.890625 0 Z M 0.890625 -6.5625 "/>
</symbol>
</g>
</defs>
<g id="surface54129">
<rect x="0" y="0" width="300" height="300" style="fill:rgb(100%,100%,100%);fill-opacity:1;stroke:none;"/>
<path style="fill:none;stroke-width:1;stroke-linecap:butt;stroke-linejoin:miter;stroke:rgb(0%,0%,0%);stroke-opacity:1;stroke-miterlimit:10;" d="M 162.496094 179.050781 L 162.496094 179.050781 M 161.097656 181.707031 L 162.089844 182.023438 M 159.703125 184.363281 L 161.6875 184.996094 M 158.304688 187.015625 L 161.285156 187.96875 M 156.910156 189.671875 L 160.882812 190.941406 M 155.511719 192.328125 L 160.480469 193.914062 M 154.117188 194.984375 L 160.074219 196.886719 M 152.71875 197.636719 L 159.671875 199.859375 M 151.796875 199.394531 L 159.40625 201.828125 "/>
<path style="fill:none;stroke-width:1.2;stroke-linecap:butt;stroke-linejoin:miter;stroke:rgb(0%,0%,0%);stroke-opacity:1;stroke-miterlimit:10;" d="M 162.496094 179.050781 L 184.613281 174.242188 "/>
<path style="fill:none;stroke-width:1.2;stroke-linecap:butt;stroke-linejoin:miter;stroke:rgb(0%,0%,0%);stroke-opacity:1;stroke-miterlimit:10;" d="M 162.496094 179.050781 L 154.882812 170.675781 "/>
<path style="fill:none;stroke-width:1.2;stroke-linecap:butt;stroke-linejoin:miter;stroke:rgb(0%,0%,100%);stroke-opacity:1;stroke-miterlimit:10;" d="M 154.882812 170.675781 L 147.269531 162.300781 "/>
<path style="fill:none;stroke-width:1.2;stroke-linecap:butt;stroke-linejoin:miter;stroke:rgb(0%,0%,0%);stroke-opacity:1;stroke-miterlimit:10;" d="M 184.613281 174.242188 L 191.503906 152.683594 "/>
<path style="fill:none;stroke-width:1.2;stroke-linecap:butt;stroke-linejoin:miter;stroke:rgb(0%,0%,0%);stroke-opacity:1;stroke-miterlimit:10;" d="M 191.503906 152.683594 L 213.621094 147.875 "/>
<path style="fill:none;stroke-width:1.2;stroke-linecap:butt;stroke-linejoin:miter;stroke:rgb(0%,0%,0%);stroke-opacity:1;stroke-miterlimit:10;" d="M 192.585938 147 L 210.277344 143.152344 "/>
<path style="fill:none;stroke-width:1.2;stroke-linecap:butt;stroke-linejoin:miter;stroke:rgb(0%,0%,0%);stroke-opacity:1;stroke-miterlimit:10;" d="M 176.28125 135.933594 L 191.503906 152.683594 "/>
<path style="fill:none;stroke-width:1.2;stroke-linecap:butt;stroke-linejoin:miter;stroke:rgb(0%,0%,0%);stroke-opacity:1;stroke-miterlimit:10;" d="M 213.621094 147.875 L 220.515625 126.316406 "/>
<path style="fill:none;stroke-width:1.2;stroke-linecap:butt;stroke-linejoin:miter;stroke:rgb(0%,0%,0%);stroke-opacity:1;stroke-miterlimit:10;" d="M 220.515625 126.316406 L 205.292969 109.566406 "/>
<path style="fill:none;stroke-width:1.2;stroke-linecap:butt;stroke-linejoin:miter;stroke:rgb(0%,0%,0%);stroke-opacity:1;stroke-miterlimit:10;" d="M 215.050781 128.222656 L 202.875 114.824219 "/>
<path style="fill:none;stroke-width:1.2;stroke-linecap:butt;stroke-linejoin:miter;stroke:rgb(0%,0%,0%);stroke-opacity:1;stroke-miterlimit:10;" d="M 220.515625 126.316406 L 242.632812 121.507812 "/>
<path style="fill:none;stroke-width:1.2;stroke-linecap:butt;stroke-linejoin:miter;stroke:rgb(0%,0%,0%);stroke-opacity:1;stroke-miterlimit:10;" d="M 205.292969 109.566406 L 183.175781 114.375 "/>
<path style="fill:none;stroke-width:1.2;stroke-linecap:butt;stroke-linejoin:miter;stroke:rgb(0%,0%,0%);stroke-opacity:1;stroke-miterlimit:10;" d="M 183.175781 114.375 L 176.28125 135.933594 "/>
<path style="fill:none;stroke-width:1.2;stroke-linecap:butt;stroke-linejoin:miter;stroke:rgb(0%,0%,0%);stroke-opacity:1;stroke-miterlimit:10;" d="M 187.558594 118.152344 L 182.042969 135.402344 "/>
<path style="fill:none;stroke-width:1.2;stroke-linecap:butt;stroke-linejoin:miter;stroke:rgb(0%,0%,0%);stroke-opacity:1;stroke-miterlimit:10;" d="M 242.632812 121.507812 L 253.691406 119.101562 "/>
<path style="fill:none;stroke-width:1.2;stroke-linecap:butt;stroke-linejoin:miter;stroke:rgb(20%,80%,80%);stroke-opacity:1;stroke-miterlimit:10;" d="M 253.691406 119.101562 L 264.75 116.699219 "/>
<path style="fill:none;stroke-width:1.2;stroke-linecap:butt;stroke-linejoin:miter;stroke:rgb(0%,0%,0%);stroke-opacity:1;stroke-miterlimit:10;" d="M 242.632812 121.507812 L 245.039062 132.566406 "/>
<path style="fill:none;stroke-width:1.2;stroke-linecap:butt;stroke-linejoin:miter;stroke:rgb(20%,80%,80%);stroke-opacity:1;stroke-miterlimit:10;" d="M 245.039062 132.566406 L 247.441406 143.625 "/>
<path style="fill:none;stroke-width:1.2;stroke-linecap:butt;stroke-linejoin:miter;stroke:rgb(0%,0%,0%);stroke-opacity:1;stroke-miterlimit:10;" d="M 242.632812 121.507812 L 240.226562 110.449219 "/>
<path style="fill:none;stroke-width:1.2;stroke-linecap:butt;stroke-linejoin:miter;stroke:rgb(20%,80%,80%);stroke-opacity:1;stroke-miterlimit:10;" d="M 240.226562 110.449219 L 237.824219 99.390625 "/>
<path style=" stroke:none;fill-rule:nonzero;fill:rgb(100%,100%,100%);fill-opacity:1;" d="M 261.75 111.199219 L 267.75 111.199219 L 267.75 122.199219 L 261.75 122.199219 Z M 261.75 111.199219 "/>
<g style="fill:rgb(20%,80%,80%);fill-opacity:1;">
  <use xlink:href="#glyph0-1" x="261.75" y="119.862305"/>
</g>
<path style=" stroke:none;fill-rule:nonzero;fill:rgb(100%,100%,100%);fill-opacity:1;" d="M 244.441406 138.125 L 250.441406 138.125 L 250.441406 149.125 L 244.441406 149.125 Z M 244.441406 138.125 "/>
<g style="fill:rgb(20%,80%,80%);fill-opacity:1;">
  <use xlink:href="#glyph0-1" x="244.441406" y="146.788086"/>
</g>
<path style=" stroke:none;fill-rule:nonzero;fill:rgb(100%,100%,100%);fill-opacity:1;" d="M 234.824219 93.890625 L 240.824219 93.890625 L 240.824219 104.890625 L 234.824219 104.890625 Z M 234.824219 93.890625 "/>
<g style="fill:rgb(20%,80%,80%);fill-opacity:1;">
  <use xlink:href="#glyph0-1" x="234.824219" y="102.553711"/>
</g>
<path style="fill:none;stroke-width:1.2;stroke-linecap:butt;stroke-linejoin:miter;stroke:rgb(0%,0%,100%);stroke-opacity:1;stroke-miterlimit:10;" d="M 147.269531 162.300781 L 136.214844 164.707031 "/>
<path style="fill:none;stroke-width:1.2;stroke-linecap:butt;stroke-linejoin:miter;stroke:rgb(0%,0%,0%);stroke-opacity:1;stroke-miterlimit:10;" d="M 136.214844 164.707031 L 125.15625 167.113281 "/>
<path style=" stroke:none;fill-rule:nonzero;fill:rgb(100%,100%,100%);fill-opacity:1;" d="M 140.269531 156.800781 L 154.269531 156.800781 L 154.269531 167.800781 L 140.269531 167.800781 Z M 140.269531 156.800781 "/>
<g style="fill:rgb(0%,0%,100%);fill-opacity:1;">
  <use xlink:href="#glyph0-2" x="140.269531" y="165.463867"/>
  <use xlink:href="#glyph0-3" x="147.24707" y="165.463867"/>
</g>
<path style="fill:none;stroke-width:1.2;stroke-linecap:butt;stroke-linejoin:miter;stroke:rgb(0%,0%,0%);stroke-opacity:1;stroke-miterlimit:10;" d="M 125.15625 167.113281 L 109.929688 150.363281 "/>
<path style="fill:none;stroke-width:1.2;stroke-linecap:butt;stroke-linejoin:miter;stroke:rgb(0%,0%,0%);stroke-opacity:1;stroke-miterlimit:10;" d="M 109.929688 150.363281 L 87.8125 155.171875 "/>
<path style="fill:none;stroke-width:1.2;stroke-linecap:butt;stroke-linejoin:miter;stroke:rgb(0%,0%,0%);stroke-opacity:1;stroke-miterlimit:10;" d="M 87.8125 155.171875 L 72.589844 138.421875 "/>
<path style="fill:none;stroke-width:1.2;stroke-linecap:butt;stroke-linejoin:miter;stroke:rgb(0%,0%,0%);stroke-opacity:1;stroke-miterlimit:10;" d="M 72.589844 138.421875 L 79.484375 116.863281 "/>
<path style="fill:none;stroke-width:1.2;stroke-linecap:butt;stroke-linejoin:miter;stroke:rgb(0%,0%,0%);stroke-opacity:1;stroke-miterlimit:10;" d="M 68.207031 134.644531 L 73.722656 117.398438 "/>
<path style="fill:none;stroke-width:1.2;stroke-linecap:butt;stroke-linejoin:miter;stroke:rgb(0%,0%,0%);stroke-opacity:1;stroke-miterlimit:10;" d="M 50.472656 143.230469 L 72.589844 138.421875 "/>
<path style="fill:none;stroke-width:1.2;stroke-linecap:butt;stroke-linejoin:miter;stroke:rgb(0%,0%,0%);stroke-opacity:1;stroke-miterlimit:10;" d="M 79.484375 116.863281 L 64.261719 100.113281 "/>
<path style="fill:none;stroke-width:1.2;stroke-linecap:butt;stroke-linejoin:miter;stroke:rgb(0%,0%,0%);stroke-opacity:1;stroke-miterlimit:10;" d="M 64.261719 100.113281 L 42.144531 104.925781 "/>
<path style="fill:none;stroke-width:1.2;stroke-linecap:butt;stroke-linejoin:miter;stroke:rgb(0%,0%,0%);stroke-opacity:1;stroke-miterlimit:10;" d="M 63.179688 105.800781 L 45.488281 109.648438 "/>
<path style="fill:none;stroke-width:1.2;stroke-linecap:butt;stroke-linejoin:miter;stroke:rgb(0%,0%,0%);stroke-opacity:1;stroke-miterlimit:10;" d="M 42.144531 104.925781 L 35.25 126.484375 "/>
<path style="fill:none;stroke-width:1.2;stroke-linecap:butt;stroke-linejoin:miter;stroke:rgb(0%,0%,0%);stroke-opacity:1;stroke-miterlimit:10;" d="M 35.25 126.484375 L 50.472656 143.230469 "/>
<path style="fill:none;stroke-width:1.2;stroke-linecap:butt;stroke-linejoin:miter;stroke:rgb(0%,0%,0%);stroke-opacity:1;stroke-miterlimit:10;" d="M 40.714844 124.574219 L 52.890625 137.976562 "/>
</g>
</svg>

<svg xmlns="http://www.w3.org/2000/svg" xmlns:xlink="http://www.w3.org/1999/xlink" width="300pt" height="300pt" viewBox="0 0 300 300"><defs><symbol overflow="visible"><path d="M.453 1.594v-7.938h4.5v7.938zm.5-.5h3.5v-6.938h-3.5zm0 0"/></symbol><symbol overflow="visible" id="a"><path d="M.89-6.563h3.766v.75h-2.89v1.938h2.61v.734h-2.61V0H.89zm0 0"/></symbol><symbol overflow="visible" id="b"><path d="M.89-6.563H2.08l2.906 5.485v-5.484h.86V0H4.656L1.75-5.484V0H.89zm0 0"/></symbol><symbol overflow="visible" id="c"><path d="M.89-6.563h.876v2.688H5v-2.688h.89V0H5v-3.125H1.766V0H.89zm0 0"/></symbol></defs><g><path fill="#fff" d="M0 0h300v300H0z"/><path d="M162.496 179.05m-1.398 2.657l.992.316m-2.387 2.34l1.984.633m-3.382 2.02l2.98.953m-4.375 1.702l3.973 1.27m-5.37 1.386l4.967 1.586m-6.363 1.07l5.957 1.903m-7.355.75l6.952 2.222m-7.875-.465l7.61 2.433" stroke="#000" stroke-miterlimit="10" fill="none"/><path d="M162.496 179.05l22.117-4.808M162.496 179.05l-7.613-8.374" stroke-width="1.2" stroke="#000" stroke-miterlimit="10" fill="none"/><path d="M154.883 170.676l-7.613-8.375" stroke-width="1.2" stroke="#00f" stroke-miterlimit="10" fill="none"/><path d="M184.613 174.242l6.89-21.558M191.504 152.684l22.117-4.81M192.586 147l17.69-3.848M176.28 135.934l15.224 16.75M213.62 147.875l6.896-21.56M220.516 126.316l-15.223-16.75M215.05 128.223l-12.175-13.4M220.516 126.316l22.117-4.808M205.293 109.566l-22.117 4.81M183.176 114.375l-6.895 21.56M187.56 118.152l-5.517 17.25M242.633 121.508l11.058-2.406" stroke-width="1.2" stroke="#000" stroke-miterlimit="10" fill="none"/><path d="M253.69 119.102l11.06-2.403" stroke-width="1.2" stroke="#3cc" stroke-miterlimit="10" fill="none"/><path d="M242.633 121.508l2.406 11.058" stroke-width="1.2" stroke="#000" stroke-miterlimit="10" fill="none"/><path d="M245.04 132.566l2.4 11.06" stroke-width="1.2" stroke="#3cc" stroke-miterlimit="10" fill="none"/><path d="M242.633 121.508l-2.406-11.06" stroke-width="1.2" stroke="#000" stroke-miterlimit="10" fill="none"/><path d="M240.227 110.45l-2.403-11.06" stroke-width="1.2" stroke="#3cc" stroke-miterlimit="10" fill="none"/><path d="M261.75 111.2h6v11h-6zm0 0" fill="#fff"/><use xlink:href="#a" x="261.75" y="119.862" fill="#3cc"/><path d="M244.44 138.125h6v11h-6zm0 0" fill="#fff"/><use xlink:href="#a" x="244.441" y="146.788" fill="#3cc"/><path d="M234.824 93.89h6v11h-6zm0 0" fill="#fff"/><use xlink:href="#a" x="234.824" y="102.554" fill="#3cc"/><path d="M147.27 162.3l-11.055 2.407" stroke-width="1.2" stroke="#00f" stroke-miterlimit="10" fill="none"/><path d="M136.215 164.707l-11.06 2.406" stroke-width="1.2" stroke="#000" stroke-miterlimit="10" fill="none"/><path d="M140.27 156.8h14v11h-14zm0 0" fill="#fff"/><g fill="#00f"><use xlink:href="#b" x="140.27" y="165.464"/><use xlink:href="#c" x="147.247" y="165.464"/></g><path d="M125.156 167.113l-15.226-16.75M109.93 150.363l-22.118 4.81M87.813 155.172l-15.223-16.75M72.59 138.422l6.894-21.56M68.207 134.645l5.516-17.247M50.473 143.23l22.117-4.808M79.484 116.863l-15.222-16.75M64.262 100.113l-22.117 4.813M63.18 105.8l-17.692 3.848M42.145 104.926l-6.895 21.558M35.25 126.484l15.223 16.746M40.715 124.574l12.176 13.403" stroke-width="1.2" stroke="#000" stroke-miterlimit="10" fill="none"/></g></svg>
